X:1
T:Title
%%score { 1 | 2 }
L:1/8
M:4/4
K:C
V:1 treble nm="Grand Piano"
V:2 bass 
V:1
 z4 z2[Q:1/4=100] [CE][DF] | [EG]2 [EG]2 [FA][EG][Ec][Fd] | [Ge]2 [Ec]2 [FA][EG][CE][EG] | %3
 [Ec]2 [Ec]2 [Ec][DB][Ec][Ge] |[M:7/8] e2 d2 d3 |[M:1/4] E[DF] | %6
[M:4/4] [EG]2 [EG]2 [FA][EG][Ec][Fd] | [Ge]2 [Ec]2 [FA][GB][Ac]A | G2 c2 [Fc]2 [FB]2 | [Ec]6 z2 | %10
 d4 dBcd | [Ge]2 [Ec]>[Ec] [FA][EG][CE][EG] | [Ec]2 [Ec]2 [Ec][DB][Ec][Ge] |[M:7/8] e2 d2 d3 | %14
[M:1/4] E[DF] |[M:4/4] [EG]2 [EG]2 [FA][EG][Ec][Fd] | [Ge]2 [Ec]2 [FA][GB][Ac]A | %17
 G2 c2 [Fc]2 [FB]2 |[M:8/4] [Ec]8 z8 |] %19
V:2
 z4 z2 [C,G,][C,G,] | [C,C]2 [C,C]2 [C,C][C,C][C,C][C,C] | [C,C]2 [C,G,]2 [C,C][C,C][C,G,][C,G,] | %3
 [C,G,]2 [C,G,]2 [C,G,][C,G,][C,G,][C,C] |[M:7/8][K:treble] [G,CG]2 [G,B,G]2 [G,B,G]3 | %5
[M:1/4][K:bass] [C,G,C][C,G,] |[M:4/4] [C,C]2 [C,C]2 [C,C][C,C][C,C][C,C] | %7
 [C,C]2 [C,C]2 [F,C][F,C][F,C][F,CF] | [G,CE]2 [G,E]2 [G,,G,]2 [G,,G,]2 | [C,G,]6 z2 | %10
 [G,B,F]4 [G,B,F][G,DF][G,CE][G,B,F] | [C,C]2 [C,G,]>[C,G,] [C,C][C,C][C,G,][C,G,] | %12
 [C,G,]2 [C,G,]2 [C,G,][C,G,][C,G,][C,C] |[M:7/8][K:treble] [G,CG]2 [G,B,G]2 [G,B,G]3 | %14
[M:1/4][K:bass] [C,G,C][C,G,] |[M:4/4] [C,C]2 [C,C]2 [C,C][C,C][C,C][C,C] | %16
 [C,C]2 [C,C]2 [F,C][F,C][F,C][F,CF] | [G,CE]2 [G,E]2 [G,,G,]2 [G,,G,]2 |[M:8/4] [C,G,]8 z8 |] %19

